; generated by PrusaSlicer 2.6.1+win64 on 2025-08-01 at 18:40:12 UTC


;
;
; 

; external perimeters extrusion width = 0.45mm
; perimeters extrusion width = 0.45mm
; infill extrusion width = 0.45mm
; solid infill extrusion width = 0.45mm
; top infill extrusion width = 0.40mm
; support material extrusion width = 0.35mm
; first layer extrusion width = 0.42mm

; external perimeters extrusion width = 0.45mm
; perimeters extrusion width = 0.45mm
; infill extrusion width = 0.45mm
; solid infill extrusion width = 0.45mm
; top infill extrusion width = 0.40mm
; support material extrusion width = 0.35mm
; first layer extrusion width = 0.42mm

M73 P0 R63
M73 Q0 S63
M201 X1000 Y1000 Z200 E5000 ; sets maximum accelerations, mm/sec^2
M203 X200 Y200 Z12 E120 ; sets maximum feedrates, mm / sec
M204 S1250 T1250 ; sets acceleration (S) and retract acceleration (R), mm/sec^2
M205 X8.00 Y8.00 Z0.40 E4.50 ; sets the jerk limits, mm/sec
M205 S0 T0 ; sets the minimum extruding and travel feed rate, mm/sec
;TYPE:Custom
M862.3 P "MK3S" ; printer model check
M862.1 P0.4 ; nozzle diameter check
M115 U3.11.0 ; tell printer latest fw version
G90 ; use absolute coordinates
M83 ; extruder relative mode
M104 S275 ; set extruder temp
M140 S90 ; set bed temp
M190 S90 ; wait for bed temp
M109 S275 ; wait for extruder temp
G28 W ; home all without mesh bed level
G80 ; mesh bed leveling

G1 Z0.2 F720
G1 Y-3 F1000 ; go outside print area
G92 E0
G1 X60 E9 F1000 ; intro line
G1 X100 E12.5 F1000 ; intro line

G92 E0
M221 S95

; Don't change E values below. Excessive value can damage the printer.

G21 ; set units to millimeters
G90 ; use absolute coordinates
M83 ; use relative distances for extrusion
M900 K0.07 ; Filament gcode LA 1.5
M900 K45 ; Filament gcode LA 1.0
M107
;LAYER_CHANGE
;Z:0.2
;HEIGHT:0.2
;BEFORE_LAYER_CHANGE
G92 E0.0
;0.2


G1 E-.8 F2100
G1 Z.4 F720
;AFTER_LAYER_CHANGE
;0.2
G1 X91.647 Y88.21 F10800
G1 Z.2 F720
G1 E.8 F2100
M204 S800
;TYPE:Skirt/Brim
;WIDTH:0.42
G1 F600
G1 X93.239 Y86.69 E.07246
G1 X94.878 Y85.381 E.06906
G1 X96.775 Y84.128 E.07485
G1 X98.627 Y83.131 E.06925
G1 X100.728 Y82.234 E.07521
G1 X102.801 Y81.566 E.0717
G1 X105.013 Y81.072 E.07462
G1 X107.03 Y80.805 E.06698
G1 X109.312 Y80.708 E.0752
G1 X111.142 Y80.785 E.0603
G1 X112.884 Y80.988 E.05774
G1 X183.685 Y91.981 E2.35884
G1 X184.93 Y92.407 E.04332
G1 X186.003 Y93.031 E.04086
G1 X186.988 Y93.904 E.04333
G1 X187.737 Y94.893 E.04084
G1 X188.31 Y96.078 E.04333
G1 X188.617 Y97.26 E.0402
G1 X188.693 Y98.593 E.04396
G1 X188.518 Y99.814 E.04061
G1 X187.951 Y101.312 E.05273
G1 X187.152 Y102.492 E.04692
G1 X186.033 Y103.527 E.05018
G1 X184.634 Y104.301 E.05264
G1 X117.025 Y127.998 E2.35859
G1 X115.258 Y128.525 E.06071
G1 X113.548 Y128.9 E.05763
G1 X111.91 Y129.141 E.05451
G1 X110.267 Y129.269 E.05425
G1 X108.615 Y129.285 E.05439
G1 X106.975 Y129.19 E.05408
G1 X105.195 Y128.959 E.05909
G1 X103.451 Y128.601 E.05861
G1 X101.241 Y127.95 E.07585
G1 X99.37 Y127.213 E.0662
G1 X97.348 Y126.203 E.07441
G1 X95.397 Y124.988 E.07567
G1 X93.564 Y123.589 E.07591
G1 X91.914 Y122.065 E.07395
G1 X90.538 Y120.548 E.06743
G1 X89.177 Y118.751 E.07421
G1 X88.029 Y116.907 E.07151
G1 X87.002 Y114.861 E.07537
G1 X86.224 Y112.88 E.07007
G1 X85.588 Y110.697 E.07486
G1 X85.158 Y108.46 E.07499
G1 X84.949 Y106.371 E.06912
G1 X84.924 Y104.182 E.07207
G1 X85.106 Y101.926 E.07451
G1 X85.445 Y99.935 E.06649
G1 X86.031 Y97.707 E.07584
G1 X86.816 Y95.568 E.07501
G1 X87.799 Y93.512 E.07503
G1 X88.978 Y91.544 E.07553
G1 X90.155 Y89.924 E.06592
G1 X91.607 Y88.255 E.07283
M204 S1000
; printing object Kegelrad_Antrieb id:0 copy 0
;WIPE_START
G1 F8640
G1 X93.239 Y86.69 E-.5221
G1 X94.179 Y85.939 E-.2779
;WIPE_END
G1 Z.6 F720
G1 X129.587 Y100.229 F10800
G1 Z.2 F720
G1 E.8 F2100
M204 S800
;TYPE:Perimeter
;WIDTH:0.419999
G1 F600
G1 X129.845 Y101.523 E.04344
G1 X129.976 Y102.397 E.0291
G1 X130.081 Y103.442 E.03458
G1 X130.129 Y104.354 E.03007
G1 X130.141 Y105.285 E.03065
G1 X130.113 Y106.129 E.0278
G1 X130.021 Y107.261 E.03739
G1 X129.912 Y108.099 E.02782
G1 X129.714 Y109.215 E.03731
G1 X129.457 Y110.317 E.03725
G1 X129.14 Y111.404 E.03728
G1 X128.764 Y112.473 E.03731
G1 X128.446 Y113.258 E.02788
G1 X128.096 Y114.029 E.02788
G1 X127.579 Y115.04 E.03738
G1 X127.159 Y115.773 E.02781
G1 X126.55 Y116.729 E.03732
G1 X125.891 Y117.649 E.03726
G1 X125.182 Y118.534 E.03733
G1 X124.623 Y119.167 E.0278
G1 X123.833 Y119.981 E.03734
G1 X123.045 Y120.713 E.03541
G1 X122.353 Y121.296 E.02979
G1 X121.684 Y121.814 E.02786
G1 X120.756 Y122.465 E.03732
G1 X119.793 Y123.065 E.03735
G1 X119.056 Y123.477 E.0278
G1 X118.042 Y123.983 E.03731
G1 X117.001 Y124.434 E.03735
G1 X116.211 Y124.733 E.02781
G1 X115.131 Y125.084 E.03739
G1 X114.316 Y125.306 E.02781
G1 X113.21 Y125.553 E.03731
G1 X112.094 Y125.74 E.03725
G1 X110.969 Y125.866 E.03727
G1 X109.837 Y125.931 E.03733
G1 X108.992 Y125.939 E.02782
G1 X107.858 Y125.897 E.03736
G1 X107.014 Y125.826 E.02788
G1 X106.174 Y125.72 E.02787
G1 X105.057 Y125.526 E.03732
G1 X103.954 Y125.272 E.03726
G1 X102.866 Y124.959 E.03727
G1 X101.85 Y124.607 E.0354
G1 X101.009 Y124.271 E.02982
G1 X100.237 Y123.924 E.02787
G1 X99.226 Y123.411 E.03732
G1 X98.245 Y122.844 E.0373
G1 X97.532 Y122.387 E.02788
G1 X96.839 Y121.901 E.02787
G1 X95.942 Y121.207 E.03734
G1 X95.086 Y120.467 E.03725
G1 X94.27 Y119.68 E.03732
G1 X93.69 Y119.066 E.02781
M73 Q1 S63
G1 X92.951 Y118.205 E.03736
G1 X92.295 Y117.353 E.0354
G1 X91.776 Y116.611 E.02981
M73 P1 R62
G1 X91.322 Y115.898 E.02783
G1 X90.758 Y114.914 E.03734
G1 X90.249 Y113.903 E.03726
G1 X89.795 Y112.864 E.03733
G1 X89.494 Y112.075 E.0278
G1 X89.14 Y110.998 E.03732
G1 X88.859 Y109.96 E.0354
G1 X88.663 Y109.078 E.02975
G1 X88.473 Y107.961 E.0373
G1 X88.343 Y106.835 E.03732
G1 X88.286 Y105.992 E.02782
G1 X88.263 Y104.857 E.03737
G1 X88.286 Y104.012 E.02783
G1 X88.37 Y102.882 E.0373
G1 X88.515 Y101.757 E.03734
G1 X88.663 Y100.925 E.02782
G1 X88.913 Y99.82 E.0373
G1 X89.223 Y98.731 E.03728
G1 X89.571 Y97.713 E.03542
G1 X89.904 Y96.873 E.02975
G1 X90.347 Y95.892 E.03544
G1 X90.757 Y95.087 E.02974
G1 X91.321 Y94.104 E.03731
G1 X91.936 Y93.154 E.03726
G1 X92.567 Y92.283 E.03541
G1 X93.13 Y91.577 E.02973
G1 X93.842 Y90.768 E.03548
G1 X94.471 Y90.118 E.02978
G1 X95.085 Y89.535 E.02787
G1 X95.944 Y88.792 E.03739
G1 X96.608 Y88.27 E.02781
G1 X97.532 Y87.613 E.03733
G1 X98.489 Y87.008 E.03727
G1 X99.427 Y86.482 E.0354
G1 X100.234 Y86.077 E.02973
G1 X101.271 Y85.62 E.03731
G1 X102.33 Y85.22 E.03727
G1 X103.355 Y84.893 E.03542
G1 X104.227 Y84.659 E.02972
G1 X105.335 Y84.42 E.03732
G1 X106.397 Y84.249 E.03541
G1 X107.294 Y84.147 E.02972
G1 X108.425 Y84.074 E.03731
G1 X109.501 Y84.062 E.03543
G1 X110.403 Y84.094 E.02971
G1 X111.534 Y84.19 E.03737
G1 X112.372 Y84.301 E.02783
G1 X113.487 Y84.503 E.03731
G1 X114.589 Y84.764 E.03728
G1 X115.621 Y85.068 E.03542
G1 X116.474 Y85.363 E.02971
G1 X117.526 Y85.785 E.03732
G1 X118.552 Y86.262 E.03725
G1 X119.552 Y86.796 E.03732
G1 X120.278 Y87.228 E.02781
G1 X121.223 Y87.854 E.03732
G1 X122.134 Y88.529 E.03733
G1 X122.787 Y89.064 E.02779
G1 X123.631 Y89.824 E.03739
G1 X124.233 Y90.42 E.02789
G1 X124.81 Y91.039 E.02786
G1 X125.544 Y91.906 E.0374
G1 X126.059 Y92.576 E.02782
G1 X126.707 Y93.506 E.03732
G1 X127.303 Y94.47 E.03731
G1 X127.713 Y95.209 E.02782
G1 X128.216 Y96.225 E.03732
G1 X128.663 Y97.267 E.03733
G1 X128.959 Y98.058 E.0278
G1 X129.306 Y99.139 E.03738
G1 X129.574 Y100.171 E.0351
M204 S1000
G1 X129.955 Y100.149 F10800
M204 S800
;TYPE:External perimeter
G1 F600
G1 X130.217 Y101.462 E.04408
G1 X130.351 Y102.356 E.02976
G1 X130.458 Y103.419 E.03517
G1 X130.506 Y104.349 E.03066
G1 X130.518 Y105.289 E.03095
G1 X130.489 Y106.151 E.02839
G1 X130.396 Y107.301 E.03798
G1 X130.285 Y108.156 E.02838
G1 X130.084 Y109.291 E.03795
G1 X129.822 Y110.413 E.03793
G1 X129.499 Y111.519 E.03793
G1 X129.117 Y112.607 E.03796
G1 X128.793 Y113.407 E.02842
G1 X128.436 Y114.193 E.02842
G1 X127.911 Y115.22 E.03797
G1 X127.482 Y115.968 E.02839
G1 X126.862 Y116.94 E.03796
G1 X126.191 Y117.877 E.03794
G1 X125.47 Y118.777 E.03797
G1 X124.9 Y119.424 E.02839
G1 X124.097 Y120.251 E.03795
G1 X123.294 Y120.995 E.03604
G1 X122.59 Y121.59 E.03035
G1 X121.908 Y122.118 E.0284
G1 X120.964 Y122.78 E.03796
G1 X119.985 Y123.389 E.03796
G1 X119.233 Y123.811 E.02839
G1 X118.201 Y124.325 E.03796
G1 X117.143 Y124.783 E.03796
G1 X116.336 Y125.089 E.02841
G1 X115.239 Y125.445 E.03797
G1 X114.407 Y125.672 E.02839
G1 X113.282 Y125.924 E.03796
G1 X112.146 Y126.113 E.03791
G1 X111.001 Y126.242 E.03793
G1 X109.85 Y126.308 E.03796
G1 X108.987 Y126.316 E.02841
G1 X107.835 Y126.274 E.03795
G1 X106.974 Y126.201 E.02845
G1 X106.118 Y126.093 E.0284
G1 X104.982 Y125.895 E.03796
G1 X103.859 Y125.637 E.03793
G1 X102.752 Y125.318 E.03793
G1 X101.718 Y124.96 E.03602
G1 X100.862 Y124.618 E.03035
G1 X100.075 Y124.264 E.02841
G1 X99.047 Y123.743 E.03794
G1 X98.048 Y123.166 E.03798
G1 X97.322 Y122.7 E.0284
G1 X96.615 Y122.204 E.02843
G1 X95.703 Y121.499 E.03795
G1 X94.832 Y120.745 E.03793
G1 X94.002 Y119.945 E.03795
G1 X93.41 Y119.318 E.02839
G1 X92.659 Y118.443 E.03796
G1 X91.991 Y117.576 E.03603
M73 Q1 S62
G1 X91.463 Y116.821 E.03033
G1 X90.999 Y116.093 E.02842
G1 X90.426 Y115.093 E.03794
G1 X89.908 Y114.063 E.03796
G1 X89.446 Y113.007 E.03795
G1 X89.138 Y112.201 E.02841
G1 X88.778 Y111.106 E.03795
G1 X88.492 Y110.05 E.03602
G1 X88.293 Y109.151 E.03031
G1 X88.099 Y108.014 E.03797
G1 X87.967 Y106.869 E.03795
G1 X87.909 Y106.009 E.02838
G1 X87.886 Y104.855 E.038
G1 X87.909 Y103.993 E.02839
G1 X87.995 Y102.843 E.03797
G1 X88.142 Y101.7 E.03794
G1 X88.293 Y100.851 E.02839
G1 X88.548 Y99.726 E.03798
G1 X88.863 Y98.618 E.03792
G1 X89.218 Y97.583 E.03602
G1 X89.556 Y96.726 E.03033
G1 X90.007 Y95.728 E.03606
G1 X90.426 Y94.908 E.03032
G1 X90.998 Y93.908 E.03793
G1 X91.624 Y92.94 E.03795
G1 X92.267 Y92.054 E.03604
G1 X92.841 Y91.335 E.03029
G1 X93.565 Y90.513 E.03606
G1 X94.206 Y89.85 E.03036
G1 X94.831 Y89.255 E.02841
G1 X95.704 Y88.501 E.03798
G1 X96.383 Y87.968 E.02842
G1 X97.322 Y87.3 E.03794
G1 X98.296 Y86.684 E.03794
G1 X99.25 Y86.149 E.03601
G1 X100.074 Y85.736 E.03034
G1 X101.128 Y85.271 E.03793
G1 X102.206 Y84.863 E.03795
G1 X103.249 Y84.531 E.03604
G1 X104.138 Y84.293 E.0303
G1 X105.265 Y84.049 E.03796
G1 X106.346 Y83.875 E.03605
G1 X107.261 Y83.771 E.03032
G1 X108.411 Y83.697 E.03794
G1 X109.505 Y83.685 E.03602
G1 X110.426 Y83.718 E.03034
G1 X111.575 Y83.815 E.03796
G1 X112.43 Y83.928 E.02839
G1 X113.564 Y84.134 E.03794
G1 X114.685 Y84.4 E.03793
G1 X115.736 Y84.708 E.03606
G1 X116.606 Y85.009 E.03031
G1 X117.676 Y85.439 E.03796
G1 X118.72 Y85.925 E.03791
G1 X119.737 Y86.467 E.03794
G1 X120.478 Y86.909 E.02841
G1 X121.44 Y87.545 E.03797
G1 X122.365 Y88.232 E.03793
G1 X123.033 Y88.778 E.0284
G1 X123.89 Y89.55 E.03797
G1 X124.504 Y90.157 E.02842
G1 X125.092 Y90.789 E.02842
G1 X125.838 Y91.669 E.03798
G1 X126.363 Y92.353 E.02839
G1 X127.022 Y93.299 E.03796
G1 X127.628 Y94.28 E.03796
G1 X128.047 Y95.034 E.0284
G1 X128.558 Y96.067 E.03794
G1 X129.013 Y97.126 E.03795
G1 X129.315 Y97.934 E.0284
G1 X129.668 Y99.033 E.038
G1 X129.942 Y100.09 E.03595
M204 S1000
G1 X129.662 Y100.421 F10800
;WIPE_START
G1 F8640
G1 X130.217 Y101.462 E-.3231
G1 X130.351 Y102.356 E-.20873
G1 X130.458 Y103.419 E-.24669
G1 X130.463 Y103.512 E-.02148
;WIPE_END
G1 Z.6 F720
G1 X113.314 Y107.533 F10800
G1 Z.2 F720
G1 E.8 F2100
M204 S800
;TYPE:Perimeter
G1 F600
G1 X113.226 Y107.627 E.00424
G1 X109.486 Y109.787 E.14219
G1 X109.208 Y109.863 E.00949
G1 X108.953 Y109.805 E.00861
G1 X105.198 Y107.638 E.14273
G1 X105.003 Y107.45 E.00892
G1 X104.918 Y107.204 E.00857
G1 X104.916 Y102.85 E.14334
G1 X104.99 Y102.57 E.00953
G1 X105.165 Y102.383 E.00843
G1 X105.703 Y102.07 E.02049
G1 X108.92 Y100.213 E.12229
G1 X109.196 Y100.137 E.00942
G1 X109.477 Y100.208 E.00954
G1 X113.207 Y102.362 E.1418
G1 X113.405 Y102.554 E.00908
G1 X113.489 Y102.827 E.0094
G1 X113.49 Y107.149 E.14229
G1 X113.423 Y107.416 E.00906
G1 X113.355 Y107.489 E.00328
M204 S1000
G1 X113.049 Y107.29 F10800
M204 S800
;TYPE:External perimeter
G1 F600
G1 X109.295 Y109.462 E.14278
G1 X109.133 Y109.472 E.00534
G1 X105.384 Y107.31 E.14248
G1 X105.296 Y107.182 E.00511
G1 X105.293 Y106.792 E.01284
G1 X105.293 Y102.851 E.12975
G1 X105.358 Y102.709 E.00514
G1 X109.108 Y100.54 E.14262
G1 X109.26 Y100.523 E.00504
G1 X113.021 Y102.69 E.1429
G1 X113.11 Y102.821 E.00521
G1 X113.113 Y107.149 E.14249
G1 X113.074 Y107.235 E.00311
M204 S1000
G1 X113.184 Y107.666 F10800
;WIPE_START
G1 F8640
G1 X110.089 Y108.994 E-.8
;WIPE_END
G1 Z.6 F720
G1 X121.934 Y88.522 F10800
G1 Z.2 F720
G1 E.8 F2100
M204 S800
;TYPE:Solid infill
;WIDTH:0.42191
G1 F600
G1 X124.049 Y90.637 E.09897
G1 X124.599 Y91.227 E.02669
G1 X125.324 Y92.084 E.03714
G1 X125.831 Y92.743 E.02751
G1 X126.316 Y93.44 E.0281
G1 X120.767 Y87.891 E.25966
G1 X120.127 Y87.468 E.02538
G1 X119.347 Y87.007 E.02998
G1 X127.191 Y94.851 E.36706
G1 X127.463 Y95.34 E.01852
G1 X127.774 Y95.97 E.02325
G1 X118.228 Y86.424 E.4467
G1 X117.245 Y85.977 E.03573
G1 X128.22 Y96.952 E.51357
G1 X128.577 Y97.845 E.03182
G1 X116.352 Y85.62 E.57206
G1 X115.533 Y85.337 E.02867
G1 X128.855 Y98.658 E.62337
G1 X129.092 Y99.432 E.02678
G1 X114.774 Y85.113 E.67003
G1 X114.052 Y84.927 E.02467
M73 P2 R62
M73 Q2 S62
G1 X129.281 Y100.157 E.71266
G1 X129.432 Y100.844 E.02327
G1 X113.354 Y84.766 E.75236
G1 X112.7 Y84.648 E.02199
G1 X129.555 Y101.503 E.78872
G1 X129.66 Y102.143 E.02146
G1 X112.061 Y84.545 E.82352
G1 X111.447 Y84.466 E.02048
G1 X129.73 Y102.75 E.85557
G1 X129.792 Y103.348 E.01989
G1 X110.861 Y84.417 E.88587
G1 X110.281 Y84.373 E.01925
G1 X129.828 Y103.92 E.91469
G1 X129.847 Y104.475 E.01838
G1 X109.726 Y84.353 E.94158
G1 X109.19 Y84.354 E.01774
M73 P2 R61
G1 X129.855 Y105.018 E.96699
G1 X129.849 Y105.549 E.01757
G1 X108.656 Y84.356 E.99172
G1 X108.14 Y84.376 E.01709
G1 X129.832 Y106.067 E1.01505
G1 X129.793 Y106.565 E.01653
G1 X107.637 Y84.408 E1.03681
G1 X107.141 Y84.449 E.01647
G1 X129.753 Y107.061 E1.05812
G1 X129.699 Y107.543 E.01605
M73 Q2 S61
G1 X106.66 Y84.504 E1.0781
G1 X106.189 Y84.569 E.01573
M73 P3 R61
M73 Q3 S61
G1 X129.638 Y108.017 E1.09726
G1 X129.559 Y108.474 E.01535
G1 X105.728 Y84.643 E1.11516
G1 X105.272 Y84.723 E.01532
G1 X129.478 Y108.929 E1.13271
G1 X129.387 Y109.374 E.01503
G1 X104.831 Y84.818 E1.14909
G1 X104.39 Y84.913 E.01493
G1 X129.285 Y109.808 E1.16495
G1 X129.184 Y110.243 E.01478
G1 X103.964 Y85.023 E1.18016
G1 X103.541 Y85.136 E.01449
G1 X129.063 Y110.658 E1.19429
G1 X128.942 Y111.073 E.0143
G1 X103.13 Y85.261 E1.20786
G1 X102.724 Y85.391 E.01411
G1 X128.813 Y111.48 E1.22083
G1 X128.674 Y111.877 E.01392
G1 X102.322 Y85.525 E1.23313
G1 X101.933 Y85.672 E.01376
M73 P4 R61
M73 Q4 S61
G1 X128.535 Y112.274 E1.24483
G1 X128.384 Y112.659 E.01368
G1 X101.544 Y85.819 E1.25597
G1 X101.165 Y85.976 E.01357
M73 P4 R60
G1 X128.229 Y113.04 E1.26645
G1 X128.065 Y113.412 E.01345
G1 X100.793 Y86.14 E1.27618
G1 X100.421 Y86.304 E.01345
G1 X127.898 Y113.781 E1.28578
G1 X127.722 Y114.141 E.01326
M73 Q4 S60
G1 X100.061 Y86.48 E1.29439
G1 X99.704 Y86.659 E.01321
G1 X127.54 Y114.495 E1.30258
G1 X127.359 Y114.85 E.01319
G1 X99.355 Y86.846 E1.31044
G1 X99.012 Y87.039 E.01302
G1 X127.166 Y115.193 E1.31746
G1 X126.971 Y115.533 E.01297
G1 X98.669 Y87.231 E1.32438
G1 X98.339 Y87.438 E.01289
M73 P5 R60
M73 Q5 S60
G1 X112.567 Y101.665 E.66577
G1 X113.364 Y102.126 E.03047
G1 X113.546 Y102.273 E.00774
G1 X113.66 Y102.427 E.00634
G1 X113.747 Y102.641 E.00764
G1 X113.773 Y102.871 E.00766
G1 X126.766 Y115.864 E.608
G1 X126.557 Y116.192 E.01287
G1 X113.773 Y103.407 E.59825
G1 X113.773 Y103.943 E.01774
G1 X126.348 Y116.519 E.58847
G1 X126.127 Y116.834 E.01273
G1 X113.773 Y104.479 E.57812
G1 X113.773 Y105.015 E.01774
G1 X125.903 Y117.146 E.56764
G1 X125.68 Y117.458 E.01269
G1 X113.773 Y105.551 E.55718
G1 X113.773 Y106.087 E.01774
G1 X125.442 Y117.757 E.54607
G1 X125.204 Y118.054 E.01259
G1 X113.773 Y106.623 E.53491
G1 X113.772 Y107.159 E.01774
G1 X124.965 Y118.352 E.52377
G1 X124.714 Y118.637 E.01257
G1 X113.655 Y107.578 E.5175
G1 X113.519 Y107.755 E.00739
